X: 36
T: The Rose-bud March
C: Scott Joplin
%%abc-version 2.0
%%abcx-abcm2ps-target-version 5.9.1 (29 Sep 2008)
%%abc-creator hum2abc beta
%%abcx-conversion-date 2021/07/20 09:00:57
%%abc-copyright 2021 Craig Stuart Sapp
%%abc-edited-by Craig Stuart Sapp
%%abc-edited-by Craig Stuart Sapp
%%abcx-initial-encoding-date 2005/03/29
%%humdrum-veritas 1117934352
%%humdrum-veritas-data 2072798799
%%removed 0's from note length
%%linebreak <none>
%%barnumbers 0
L: 1/8
M: 6/8
N: Derived from rosebud.krn
Q: "Tempo di Marcia." 3/8=108
%%staves {1 2}
V: 1 clef=treble
V: 2 clef=bass
K: G
[V:1] d_dc B_BA | 
[V:2] D_DC B,_B,A, | 
[V:1] _AGF =FE_E | 
[V:2] _A,G,F, =F,E,_E, | 
[V:1] D^DE FE_E | 
[V:2] D,^D,E, F,E,_E, | 
[V:1] D z z !accent![dAFD] z D ]|:  
[V:2] D, z z !accent![D,D,,] z z ]|:  
[V:1] FED ABc | 
[V:2] A,,z[CF,D,] D,,z[CF,D,] | 
[V:1] Bz[eBG][e2B2G2]e | 
[V:2] G,,z[B,G,D,] D,,z[B,G,D,] | 
[V:1] dec BcA | 
[V:2] F,,z[CA,D,] D,,z[CF,D,] | 
[V:1] Gz[eBG][e2B2G2]G | 
[V:2] G,,z[B,G,D,][B,2G,2D,2][B,G,D,] | 
[V:1] FED ABc | 
[V:2] A,,z[CF,D,] D,,z[CF,D,] | 
[V:1] Bz[eBG][e2B2G2][^edB] | 
[V:2] G,,z[B,G,D,][B,2G,2D,2][^G,^G,,] | 
[V:1] fed ^cde & [d3A3]G2G | 
[V:2] [A,2A,,2][DA,F,]A,,2[^CA,] | 
[V:1] [d3F3]-[d2F2]D | 
[V:2] [D2A,2D,2][A,A,,] [D,D,,] z z | 
[V:1] FED ABc | 
[V:2] A,,z[CF,D,] D,,z[CF,D,] | 
[V:1] Bz[eBG][e2B2G2]e | 
[V:2] G,,z[B,G,D,] D,,z[B,G,D,] | 
[V:1] dec BcA | 
[V:2] F,,z[CA,D,] D,,z[CF,D,] | 
[V:1] Gz[eBG][e2B2G2]f/g/ | 
[V:2] G,,z[B,G,D,][B,2G,2D,2]z | 
[V:1] [a2e2c2]>g2ec | 
[V:2] C,2[CA,E,][C2A,2E,2][CA,E,] | 
[V:1] Bze dBG | 
[V:2] D,z[B,G,] B,,z[B,G,D,] | 
[V:1] FdA cBA |[1 
[V:2] A,,z[CF,D,] D,,z[CF,D,] | 
[V:1] G2D DDD :|][2 
[V:2] [B,2G,2]zz3 :|]  
[V:1] G2[dD] [dD][dD][dD] ]|: 
[V:2] [B,2G,2]zz3 ]|:  
[V:1] [e3c3E3][^d2^D2][ecE] | 
[V:2] C,2[CA,E,][C2A,2E,2][CA,E,] | 
[V:1] [c'3f3c3][b2B2][afA] | 
[V:2] A,,2[CF,D,]D,,2[CF,D,] | 
[V:1] [b2g2B2][d'bd][d'3b3d3]- | 
[V:2] G,,2[B,G,D,][B,2G,2D,2][B,G,D,] | 
[V:1] [d'3b3d3][d2D2][^d^D] | 
[V:2] G,,2[B,G,D,]B,,3 | 
[V:1] [e3c3E3][^d2^D2][ecE] | 
[V:2] C,2[CA,E,][C2A,2E,2][CA,E,] | 
[V:1] [c'3f3c3][d'2f2d2][c'fc] | 
[V:2] A,,2[CF,D,]D,,2[A,F,D,] | 
[V:1] [b6g6B6]- | 
[V:2] G,,D,G, B,G,D, | 
[V:1] [b3g3B3][d2D2][^d^D] | 
[V:2] G,,3[G,2G,,2][=F,=F,,] | 
[V:1] [e3^G3E3][=f2=F2][eGE] | 
[V:2] [E,2E,,2][DB,E,]^G,,2[DB,E,] | 
[V:1] [^g3e3^G3][b3e3B3] | 
[V:2] B,,2[DB,E,][^G,2^G,,2][DB,E,] | 
[V:1] [c'2e2c2][beB][a3e3A3]- | 
[V:2] [A,2A,,2][B,B,,][C3C,3] | 
[V:1] [a2e2A2][g'g][f'2f2][e'e] | 
[V:2] ^C,2[^A,G,E,][A,2G,2E,2][A,G,E,] | 
[V:1] [d'2d2][^c'^c][d'2d2][e'e] | 
[V:2] D,2[B,G,]B,,2[B,G,D,] | 
[V:1] [b3g3^c3][a3f3=c3] |[1 
[V:2] A,,2[^CA,G,E,]D,,2[=CA,F,D,] | 
[V:1] [g6B6]- | 
[V:2] G,,2D, E,D,B,, | 
[V:1] [g2B2][dD] [dD][dD][dD] :|][2 
[V:2] G,,2zz3 :|]  
[V:1] [g6B6]- | 
[V:2] G,,2D, E,D,B,, | 
[V:1] [g2B2]zz3 | 
[V:2] G,,2=F,E,2D, | 
[V:1]  [K:C] [e3G3][G3E3] | 
[V:2]  [K:C] C,2[CG,E,]C,2[CG,E,] | 
[V:1] [^F3^D3]B2A & x3D3 | 
[V:2] C,2[CA,^F,]C,2[CA,F,] | 
[V:1] [G3E3][c3E3]- | 
[V:2] C,2[CG,E,]G,,2[CG,E,] | 
[V:1] [c3E3][c3_B3] | 
[V:2] C,2[CG,E,]G,,2[CG,E,] | 
[V:1] [c3A3][A3F3] | 
[V:2] F,,2[CA,F,]C,2[CA,F,] | 
[V:1] [f3A3][A3F3] | 
[V:2] A,,2[CA,F,]F,,2[CA,F,] | 
[V:1] G6- & E3E3 | 
[V:2] C,2[CG,E,]^C,2[^A,G,E,] | 
[V:1] G2zx3 & F2z [gG] z z | 
[V:2] [B,2G,2D,2]z [G,G,,] z z | 
[V:1] [e3G3][G3E3] | 
[V:2] C,2[CG,E,]C,2[CG,E,] | 
[V:1] [^F3^D3]B2A & x3D3 | 
[V:2] C,2[CA,^F,]C,2[CA,F,] | 
[V:1] [G3E3][c3E3]- | 
[V:2] C,2[CG,E,]G,,2[CG,E,] | 
[V:1] [c3E3]c3 | 
[V:2] E,2[CG,]_E,2[CG,] | 
[V:1] B3G3 | 
[V:2] D,2[B,G,]B,,2[B,G,D,] | 
[V:1] A3D3 | 
[V:2] D,2[CA,^F,]D,2[CA,F,] | 
[V:1] [G6B,6]- | 
[V:2] G,,B,,D, G,D,B,, | 
[V:1] [G2B,2]z[g3G3] | 
[V:2] G,,2z[G,3G,,3] | 
[V:1] [e3G3][G3E3] | 
[V:2] C,2[CG,E,]C,2[CG,E,] | 
[V:1] [^F3^D3]B2A & x3D3 | 
[V:2] C,2[CA,^F,]C,2[CA,F,] | 
[V:1] [G3E3][c3E3]- | 
[V:2] C,2[CG,E,]G,,2[CG,E,] | 
[V:1] [c3E3][G3E3] | 
[V:2] C,2[CG,E,][C2G,2E,2][CG,E,] | 
[V:1] [A3F3][c3A3] | 
[V:2] F,,2[CA,F,][C2A,2F,2][CA,F,] | 
[V:1] [d3B3A3][^d3B3A3] | 
[V:2] [F,3F,,3][F,3F,,3] | 
[V:1] [e6B6^G6]- | 
[V:2] [E,E,,]^G,,B,, E,B,,G,, | 
[V:1] [e3B3G3]e3 | 
[V:2] E,,2zz3 | 
[V:1] [a3^c3A3][g3c3A3] | 
[V:2] E,2[^CA,G,]A,,2[CA,G,] | 
[V:1] [f3^c3A3][e3c3G3] | 
[V:2] ^C,2[^CA,G,]A,,2[CA,G,] | 
[V:1] [d3A3F3][f3d3A3] | 
[V:2] D,2[DA,F,][A,2A,,2][DA,F,] | 
[V:1] [c'6^f6^d6c6] | 
[V:2] [_A,6_A,,6] | 
[V:1] [g3e3c3][e3c3G3] | 
[V:2] [G,2G,,2][CG,E,][C2G,2E,2][CG,E,] | 
[V:1] [d3B3F3]-[d2B2F2][GF] |[1 
[V:2] G,,2[B,G,F,]D,2[B,G,F,] | 
[V:1] [c6E6]- | 
[V:2] C,E,G, A,G,E, | 
[V:1] [c2E2]z[g3B3G3] :|][2 
[V:2] C,2z[G,3G,,3] :|]  
[V:1] [c6E6]- | 
[V:2] C,E,G, A,G,E, | 
[V:1] [c2E2]z [c'ec] z z | 
[V:2] C,2z [C,C,,] z z | 
[V:1] E2^D EGE | 
[V:2] [C3G,3E,3C,3][^A,3G,3E,3^C,3] | 
[V:1] D2D BGE | 
[V:2] [B,3G,3D,3][B,3G,3D,3] | 
[V:1] D2A DE^F | 
[V:2] [C3A,3^F,3D,3][C3A,3F,3D,3] | 
[V:1] G2z z z D ]|:  
[V:2] G,,2[B,G,D,]D,,2[B,G,D,] ]|:  
[V:1]  [K:G] FED ABc | 
[V:2]  [K:G] A,,z[CF,D,] D,,z[CF,D,] | 
[V:1] Bz[eBG][e2B2G2]e | 
[V:2] G,,z[B,G,D,] D,,z[B,G,D,] | 
[V:1] dec BcA | 
[V:2] F,,z[CA,D,] D,,z[CF,D,] | 
[V:1] Gz[eBG][e2B2G2]G | 
[V:2] G,,z[B,G,D,][B,2G,2D,2][B,G,D,] | 
[V:1] FED ABc | 
[V:2] A,,z[CF,D,] D,,z[CF,D,] | 
[V:1] Bz[eBG][e2B2G2][^edB] | 
[V:2] G,,z[B,G,D,][B,2G,2D,2][^G,^G,,] | 
[V:1] fed ^cde & [d3A3]G2G | 
[V:2] [A,2A,,2][DA,F,]A,,2[^CA,] | 
[V:1] [d3F3]-[d2F2]D | 
[V:2] [D2A,2D,2][A,A,,] [D,D,,] z z | 
[V:1] FED ABc | 
[V:2] A,,z[CF,D,] D,,z[CF,D,] | 
[V:1] Bz[eBG][e2B2G2]e | 
[V:2] G,,z[B,G,D,] D,,z[B,G,D,] | 
[V:1] dec BcA | 
[V:2] F,,z[CA,D,] D,,z[CF,D,] | 
[V:1] Gz[eBG][e2B2G2]f/g/ | 
[V:2] G,,z[B,G,D,][B,2G,2D,2]z | 
[V:1] [a2e2c2]>g2ec | 
[V:2] C,2[CA,E,][C2A,2E,2][CA,E,] | 
[V:1] Bze dBG | 
[V:2] D,z[B,G,] B,,z[B,G,D,] | 
[V:1] FdA cBA |[1 
[V:2] A,,z[CF,D,] D,,z[CF,D,] | 
[V:1] G2D DDD :|][2 
[V:2] [B,2G,2]zz3 :|]  
[V:1] G2z !accent![gBG] z z |]  
[V:2] [B,2G,2]z !accent![G,G,,] z z |]  


